;Sliced by ideaMaker 5.0.6.8380, 2024-07-15 13:17:04 UTC-0300
;Slicer Version: 5.0.6.8380
;Dimension: 305.000 305.000 605.000 0.400 0.400
;Plate Shape: 0
;Origin Center: 0
;Extruder Offset #1: 0.000 0.000
;Filament Diameter #1: 1.750
;Filament Diameter #2: 1.750
;Filament Compensation #1: 90.00
;Filament Compensation #2: 90.00
;Filament Density #1: 1240.00
;Filament Density #2: 1240.00
;Filament Type #1: PLA
;Filament Type #2: PLA
;Filament Name #1: [Raise3D] Premium PLA 1.75mm
;Filament Name #2: [Raise3D] Premium PLA 1.75mm
;Firmware: Raise3D Pro2
;Bounding Box: 120.168 174.268 105.811 218.610 0.000 24.320
;Model Gap: 0.150
M221 T0 S90.00
M140 S60.00
M104 T0 S205.00
M109 T0 S205.00
T0
M190 S60.00
G21
G90
M82
M107
G28 X0 Y0
G28 Z0
G1 Z15.0 F300
G92 E0
G1 F140 E29
G1 X20 Y0 F140 E30
G92 E0
G1 F6000.0
M117 Printing...
M1001
;TOTAL_NUM: 1
;PRINTING_TIME: 0
;REMAINING_TIME: 8666
M106 S0
;LAYER:-2
;Z:0.500
;HEIGHT:0.500
;PRINTING: NON-OBJECT
;PRINTING_ID: -1
G0 F6000 X127.573 Y114.793
G0 F300 Z0.500
;TYPE:RAFT
;WIDTH:0.800
G1 F480 X127.941 Y114.430 E0.0860
G1 X128.249 Y114.179 E0.1520
G1 X128.726 Y113.701 E0.2643
G1 X129.048 Y113.316 E0.3478
G1 X129.293 Y113.074 E0.4051
G1 X129.693 Y112.748 E0.4909
G1 X130.477 Y112.235 E0.6467
G1 X131.824 Y111.237 E0.9255
G1 X132.338 Y110.832 E1.0343
G1 X132.767 Y110.548 E1.1199
G1 X133.231 Y110.303 E1.2071
G1 X133.737 Y109.986 E1.3064
G1 X134.365 Y109.552 E1.4334
G1 X135.582 Y108.934 E1.6604
G1 X136.619 Y108.508 E1.8468
G1 X137.399 Y108.120 E1.9917
G1 X137.915 Y107.910 E2.0843
G1 X138.613 Y107.716 E2.2048
G1 X139.201 Y107.524 E2.3077
G1 X139.803 Y107.283 E2.4155
G1 X140.336 Y107.134 E2.5075
G1 X143.498 Y106.502 E3.0438
G1 X143.860 Y106.446 E3.1047
G1 X145.666 Y106.245 E3.4069
G1 X146.280 Y106.211 E3.5092
G1 X149.272 Y106.215 E4.0067
G1 X149.799 Y106.248 E4.0945
G1 X151.554 Y106.445 E4.3882
G1 X152.054 Y106.523 E4.4724
G1 X154.093 Y106.934 E4.8183
G1 X154.695 Y107.099 E4.9221
G1 X155.628 Y107.434 E5.0870
G1 X157.035 Y107.882 E5.3325
G1 X157.760 Y108.182 E5.4630
G1 X160.648 Y109.627 E6.0000
G1 X161.599 Y110.207 E6.1853
G1 X162.104 Y110.465 E6.2796
G1 X162.472 Y110.680 E6.3505
G1 X163.016 Y111.085 E6.4633
G1 X163.527 Y111.574 E6.5809
G1 X163.974 Y111.945 E6.6775
G1 X164.361 Y112.237 E6.7581
G1 X164.675 Y112.522 E6.8286
G1 X167.258 Y115.106 E7.4362
G1 X167.588 Y115.473 E7.5183
G1 X167.905 Y115.895 E7.6061
G1 X168.225 Y116.270 E7.6881
G1 X168.495 Y116.544 E7.7520
G1 X168.890 Y116.998 E7.8521
G1 X170.145 Y118.679 E8.2010
G1 X170.425 Y119.101 E8.2852
G1 X171.026 Y120.284 E8.5059
G1 X171.421 Y121.273 E8.6830
G1 X172.295 Y123.036 E9.0102
G1 X172.652 Y124.083 E9.1942
G1 X172.917 Y125.034 E9.3583
G1 X173.090 Y125.425 E9.4295
G1 X173.270 Y125.929 E9.5185
G1 X173.361 Y126.290 E9.5804
G1 X173.607 Y127.538 E9.7919
G1 X173.661 Y128.046 E9.8769
G1 X173.668 Y128.532 E9.9577
G1 X173.703 Y129.005 E10.0366
G1 X173.811 Y129.562 E10.1309
G1 X173.853 Y129.932 E10.1928
G1 X173.868 Y130.277 E10.2503
G1 X173.868 Y135.293 E11.0844
G1 X173.823 Y135.963 E11.1961
G1 X173.742 Y136.410 E11.2717
G1 X173.662 Y137.082 E11.3842
G1 X173.632 Y137.664 E11.4811
G1 X173.550 Y138.181 E11.5682
G1 X173.079 Y140.473 E11.9573
G1 X172.945 Y141.204 E12.0809
G1 X172.682 Y142.258 E12.2615
G1 X172.343 Y144.012 E12.5586
G1 X172.130 Y144.868 E12.7053
G1 X171.966 Y145.900 E12.8791
G1 X171.724 Y147.091 E13.0812
G1 X171.565 Y148.109 E13.2526
G1 X171.315 Y149.327 E13.4593
G1 X171.051 Y150.994 E13.7400
G1 X171.012 Y151.436 E13.8138
G1 X170.948 Y151.796 E13.8746
G1 X170.646 Y152.845 E14.0561
G1 X170.542 Y153.414 E14.1523
G1 X170.282 Y154.459 E14.3314
G1 X170.147 Y155.197 E14.4562
G1 X169.883 Y156.256 E14.6377
G1 X169.745 Y157.004 E14.7642
G1 X169.482 Y158.057 E14.9447
G1 X168.942 Y160.815 E15.4120
G1 X168.682 Y161.858 E15.5908
G1 X168.343 Y163.612 E15.8879
G1 X168.083 Y164.657 E16.0670
G1 X166.944 Y170.408 E17.0419
G1 X166.572 Y171.657 E17.2587
G1 X166.315 Y172.928 E17.4743
G1 X166.145 Y174.002 E17.6551
G1 X165.999 Y174.515 E17.7438
G1 X165.915 Y174.743 E17.7843
G1 X165.771 Y175.263 E17.8740
G1 X165.680 Y175.670 E17.9433
G1 X165.315 Y177.529 E18.2584
G1 X165.146 Y178.601 E18.4389
G1 X164.315 Y182.728 E19.1390
G1 X164.145 Y183.807 E19.3206
G1 X163.849 Y184.825 E19.4969
G1 X163.524 Y186.492 E19.7794
G1 X163.343 Y187.608 E19.9674
G1 X163.263 Y188.278 E20.0796
G1 X163.214 Y189.018 E20.2029
G1 X162.147 Y194.395 E21.1146
G1 X161.883 Y195.457 E21.2966
G1 X160.747 Y201.195 E22.2693
G1 X160.483 Y202.257 E22.4513
G1 X159.347 Y207.997 E23.4244
G1 X159.083 Y209.054 E23.6056
G1 X158.906 Y209.963 E23.7596
G1 X158.570 Y210.991 E23.9394
G1 X158.355 Y211.480 E24.0283
G1 X158.187 Y211.778 E24.0851
G1 X157.735 Y212.731 E24.2605
G1 X157.460 Y213.190 E24.3495
G1 X157.135 Y213.609 E24.4377
G1 X156.666 Y214.106 E24.5514
G1 X155.828 Y214.940 E24.7480
G1 X155.528 Y215.208 E24.8149
G1 X155.120 Y215.506 E24.8989
G1 X154.731 Y215.831 E24.9832
G1 X154.254 Y216.265 E25.0904
G1 X153.697 Y216.654 E25.2034
G1 X152.844 Y217.093 E25.3630
G1 X151.269 Y217.725 E25.6452
G1 X150.505 Y217.975 E25.7789
G1 X149.874 Y218.130 E25.8869
G1 X149.355 Y218.197 E25.9739
G1 X148.971 Y218.210 E26.0378
G1 X145.953 Y218.199 E26.5397
G1 X145.463 Y218.172 E26.6214
G1 X144.789 Y218.056 E26.7351
G1 X143.213 Y217.545 E27.0106
G1 X142.627 Y217.306 E27.1159
G1 X141.861 Y216.963 E27.2554
G1 X141.268 Y216.738 E27.3609
G1 X140.669 Y216.420 E27.4737
G1 X140.129 Y216.031 E27.5844
G1 X139.384 Y215.390 E27.7478
G1 X138.977 Y215.130 E27.8281
G1 X138.697 Y214.920 E27.8863
G1 X138.186 Y214.441 E28.0028
G1 X137.856 Y214.037 E28.0896
G1 X137.577 Y213.605 E28.1751
G1 X137.311 Y213.058 E28.2762
G1 X136.989 Y212.484 E28.3857
G1 X136.407 Y211.330 E28.6006
G1 X135.800 Y209.807 E28.8733
G1 X135.568 Y209.100 E28.9970
G1 X135.479 Y208.743 E29.0582
G1 X135.424 Y208.407 E29.1148
G1 X135.250 Y207.606 E29.2511
G1 X135.183 Y207.184 E29.3222
G1 X135.051 Y206.611 E29.4200
G1 X134.983 Y206.184 E29.4919
G1 X134.851 Y205.611 E29.5897
G1 X134.783 Y205.184 E29.6616
G1 X134.651 Y204.611 E29.7594
G1 X134.583 Y204.184 E29.8313
G1 X134.451 Y203.611 E29.9290
G1 X134.347 Y203.016 E30.0295
G1 X134.053 Y201.822 E30.2340
G1 X134.020 Y201.658 E30.2618
G1 X134.039 Y201.653 E30.2651
G1 X133.654 Y199.828 E30.5753
G1 X133.583 Y199.384 E30.6500
G1 X133.451 Y198.811 E30.7478
G1 X133.383 Y198.384 E30.8197
G1 X133.251 Y197.811 E30.9175
G1 X133.183 Y197.384 E30.9894
G1 X133.051 Y196.811 E31.0872
G1 X132.947 Y196.216 E31.1877
G1 X132.620 Y194.858 E31.4199
G1 X132.646 Y194.851 E31.4244
G1 X132.451 Y194.007 E31.5685
G1 X132.383 Y193.584 E31.6397
G1 X132.251 Y193.011 E31.7375
G1 X132.183 Y192.584 E31.8094
G1 X132.051 Y192.011 E31.9072
G1 X131.983 Y191.584 E31.9791
G1 X131.851 Y191.010 E32.0771
G1 X131.783 Y190.588 E32.1481
G1 X131.456 Y189.038 E32.4116
G1 X131.380 Y188.453 E32.5097
G1 X131.322 Y187.749 E32.6272
G1 X131.077 Y186.737 E32.8003
G1 X130.957 Y186.053 E32.9158
G1 X130.655 Y184.828 E33.1256
G1 X130.580 Y184.256 E33.2216
G1 X130.424 Y183.454 E33.3574
G1 X130.319 Y182.700 E33.4840
G1 X130.253 Y182.420 E33.5319
G1 X130.183 Y181.984 E33.6053
G1 X130.051 Y181.411 E33.7031
G1 X129.983 Y180.984 E33.7750
G1 X129.851 Y180.411 E33.8728
G1 X129.783 Y179.984 E33.9447
G1 X129.651 Y179.411 E34.0425
G1 X129.583 Y178.985 E34.1142
G1 X129.454 Y178.423 E34.2101
G1 X129.318 Y177.498 E34.3656
G1 X129.253 Y177.220 E34.4131
G1 X129.183 Y176.784 E34.4865
G1 X129.051 Y176.211 E34.5843
G1 X128.983 Y175.784 E34.6562
G1 X128.829 Y175.116 E34.7702
G1 X128.718 Y174.713 E34.8397
G1 X128.534 Y174.168 E34.9354
G1 X128.454 Y173.819 E34.9949
G1 X128.318 Y172.898 E35.1497
G1 X128.253 Y172.620 E35.1972
G1 X128.183 Y172.184 E35.2707
G1 X128.029 Y171.516 E35.3847
G1 X127.918 Y171.113 E35.4542
G1 X127.734 Y170.568 E35.5498
G1 X127.651 Y170.210 E35.6109
G1 X127.583 Y169.784 E35.6827
G1 X127.451 Y169.211 E35.7805
G1 X127.383 Y168.784 E35.8524
G1 X127.251 Y168.211 E35.9502
G1 X127.148 Y167.622 E36.0496
G1 X126.854 Y166.228 E36.2865
G1 X126.783 Y165.784 E36.3613
G1 X126.651 Y165.211 E36.4591
G1 X126.583 Y164.784 E36.5310
G1 X126.451 Y164.211 E36.6288
G1 X126.383 Y163.784 E36.7007
G1 X126.251 Y163.211 E36.7985
G1 X126.183 Y162.784 E36.8704
G1 X126.051 Y162.211 E36.9682
G1 X125.947 Y161.616 E37.0686
G1 X125.654 Y160.426 E37.2724
G1 X125.346 Y158.813 E37.5455
G1 X125.053 Y157.615 E37.7506
G1 X124.918 Y156.698 E37.9047
G1 X124.853 Y156.420 E37.9522
G1 X124.783 Y155.984 E38.0257
G1 X124.651 Y155.411 E38.1234
G1 X124.583 Y154.985 E38.1952
G1 X124.455 Y154.427 E38.2904
G1 X124.380 Y153.858 E38.3858
G1 X124.182 Y152.780 E38.5681
G1 X124.051 Y152.210 E38.6654
G1 X123.983 Y151.788 E38.7365
G1 X123.653 Y150.224 E39.0023
G1 X123.583 Y149.784 E39.0764
G1 X123.451 Y149.211 E39.1742
G1 X123.346 Y148.615 E39.2748
G1 X123.079 Y147.547 E39.4579
G1 X122.746 Y145.812 E39.7517
G1 X122.477 Y144.739 E39.9356
G1 X121.946 Y142.012 E40.3977
G1 X121.654 Y140.826 E40.6008
G1 X121.346 Y139.212 E40.8740
G1 X121.136 Y138.377 E41.0172
G1 X121.028 Y137.873 E41.1029
G1 X120.973 Y137.358 E41.1891
G1 X120.934 Y136.615 E41.3128
G1 X120.629 Y135.079 E41.5732
G1 X120.575 Y134.576 E41.6573
G1 X120.568 Y132.114 E42.0668
G1 X120.593 Y131.633 E42.1469
G1 X120.755 Y130.609 E42.3193
G1 X120.814 Y129.653 E42.4786
G1 X121.465 Y126.338 E43.0404
G1 X121.743 Y125.214 E43.2329
G1 X121.851 Y124.867 E43.2934
G1 X122.158 Y124.074 E43.4348
G1 X122.329 Y123.261 E43.5730
G1 X122.441 Y122.894 E43.6368
G1 X122.647 Y122.404 E43.7252
G1 X123.424 Y120.853 E44.0137
G1 X123.601 Y120.518 E44.0767
G1 X124.035 Y119.831 E44.2118
G1 X124.419 Y119.063 E44.3546
G1 X124.685 Y118.580 E44.4463
G1 X124.882 Y118.290 E44.5046
G1 X126.248 Y116.471 E44.8829
G1 X126.872 Y115.764 E45.0397
G1 X127.237 Y115.206 E45.1506
G1 X127.573 Y114.793 E45.2391
G0 F6000 X122.412 Y124.415
G1 F480 X122.412 Y142.519 E48.2498
G0 F6000 X124.836 Y154.476
G1 F480 X124.836 Y119.051 E54.1411
G0 F6000 X127.260 Y115.829
G1 F480 X127.260 Y166.409 E62.5525
G0 F6000 X129.684 Y177.516
G1 F480 X129.684 Y113.219 E73.2452
G0 F6000 X132.108 Y111.471
G1 F480 X132.108 Y190.383 E86.3683
G0 F6000 X134.532 Y202.263
G1 F480 X134.532 Y109.873 E101.7328
G0 F6000 X136.956 Y108.742
G1 F480 X136.956 Y211.619 E118.8413
G0 F6000 X139.380 Y214.960
G1 F480 X139.380 Y107.840 E136.6555
G0 F6000 X141.804 Y107.207
G1 F480 X141.804 Y216.556 E154.8403
G0 F6000 X144.228 Y217.496
G1 F480 X144.228 Y106.767 E173.2546
G0 F6000 X146.652 Y106.572
G1 F480 X146.652 Y217.841 E191.7587
G0 F6000 X149.076 Y217.847
G1 F480 X149.076 Y106.575 E210.2633
G0 F6000 X151.500 Y106.802
G1 F480 X151.500 Y217.246 E228.6302
G0 F6000 X153.924 Y216.057
G1 F480 X153.924 Y107.267 E246.7221
G0 F6000 X156.348 Y108.042
G1 F480 X156.348 Y213.915 E264.3288
G0 F6000 X158.772 Y208.813
G1 F480 X158.772 Y109.092 E280.9125
G0 F6000 X161.196 Y110.383
G1 F480 X161.196 Y197.074 E295.3292
G0 F6000 X163.620 Y184.323
G1 F480 X163.620 Y112.119 E307.3368
G0 F6000 X166.044 Y114.401
G1 F480 X166.044 Y172.449 E316.9902
G0 F6000 X168.468 Y161.229
G1 F480 X168.468 Y117.063 E324.3351
G0 F6000 X170.892 Y120.920
G1 F480 X170.892 Y149.698 E329.1209
G0 F6000 X173.316 Y136.944
G1 F480 X173.316 Y128.654 E330.4995
;PRINTING_TIME: 254
;REMAINING_TIME: 8413
M106 S255
;LAYER:-2
;Z:1.000
;HEIGHT:0.500
;PRINTING: NON-OBJECT
;PRINTING_ID: -1
G0 F300 Z1.000
G0 F6000 X173.703 Y129.005
;TYPE:RAFT
;WIDTH:0.800
G1 F960 X173.811 Y129.562 E330.5939
G1 X173.853 Y129.932 E330.6558
G1 X173.868 Y130.277 E330.7132
G1 X173.868 Y135.293 E331.5474
G1 X173.823 Y135.963 E331.6591
G1 X173.742 Y136.410 E331.7346
G1 X173.662 Y137.082 E331.8471
G1 X173.632 Y137.664 E331.9441
G1 X173.550 Y138.181 E332.0311
G1 X173.079 Y140.473 E332.4202
G1 X172.945 Y141.204 E332.5438
G1 X172.682 Y142.258 E332.7245
G1 X172.343 Y144.012 E333.0216
G1 X172.130 Y144.868 E333.1683
G1 X171.966 Y145.900 E333.3420
G1 X171.724 Y147.091 E333.5442
G1 X171.565 Y148.109 E333.7155
G1 X171.315 Y149.327 E333.9223
G1 X171.051 Y150.994 E334.2030
G1 X171.012 Y151.436 E334.2768
G1 X170.948 Y151.796 E334.3376
G1 X170.646 Y152.845 E334.5191
G1 X170.542 Y153.414 E334.6153
G1 X170.282 Y154.459 E334.7944
G1 X170.147 Y155.197 E334.9191
G1 X169.883 Y156.256 E335.1006
G1 X169.745 Y157.004 E335.2271
G1 X169.482 Y158.057 E335.4076
G1 X168.942 Y160.815 E335.8750
G1 X168.682 Y161.858 E336.0537
G1 X168.343 Y163.612 E336.3508
G1 X168.083 Y164.657 E336.5299
G1 X166.944 Y170.408 E337.5049
G1 X166.572 Y171.657 E337.7216
G1 X166.315 Y172.928 E337.9373
G1 X166.145 Y174.002 E338.1181
G1 X165.999 Y174.515 E338.2068
G1 X165.915 Y174.743 E338.2472
G1 X165.771 Y175.263 E338.3369
G1 X165.680 Y175.670 E338.4063
G1 X165.315 Y177.529 E338.7213
G1 X165.146 Y178.601 E338.9018
G1 X164.315 Y182.728 E339.6019
G1 X164.145 Y183.807 E339.7836
G1 X163.849 Y184.825 E339.9599
G1 X163.524 Y186.492 E340.2423
G1 X163.343 Y187.608 E340.4303
G1 X163.263 Y188.278 E340.5425
G1 X163.214 Y189.018 E340.6659
G1 X162.147 Y194.395 E341.5775
G1 X161.883 Y195.457 E341.7595
G1 X160.747 Y201.195 E342.7323
G1 X160.483 Y202.257 E342.9142
G1 X159.347 Y207.997 E343.8873
G1 X159.083 Y209.054 E344.0685
G1 X158.906 Y209.963 E344.2225
G1 X158.570 Y210.991 E344.4024
G1 X158.355 Y211.480 E344.4912
G1 X158.187 Y211.778 E344.5481
G1 X157.735 Y212.731 E344.7235
G1 X157.460 Y213.190 E344.8125
G1 X157.135 Y213.609 E344.9007
G1 X156.666 Y214.106 E345.0143
G1 X155.828 Y214.940 E345.2109
G1 X155.528 Y215.208 E345.2778
G1 X155.120 Y215.506 E345.3618
G1 X154.731 Y215.831 E345.4461
G1 X154.254 Y216.265 E345.5534
G1 X153.697 Y216.654 E345.6664
G1 X152.844 Y217.093 E345.8259
G1 X151.269 Y217.725 E346.1081
G1 X150.505 Y217.975 E346.2418
G1 X149.874 Y218.130 E346.3499
G1 X149.355 Y218.197 E346.4369
G1 X148.971 Y218.210 E346.5008
G1 X145.953 Y218.199 E347.0027
G1 X145.463 Y218.172 E347.0843
G1 X144.789 Y218.056 E347.1980
G1 X143.213 Y217.545 E347.4736
G1 X142.627 Y217.306 E347.5788
G1 X141.861 Y216.963 E347.7184
G1 X141.268 Y216.738 E347.8239
G1 X140.669 Y216.420 E347.9366
G1 X140.129 Y216.031 E348.0473
G1 X139.384 Y215.390 E348.2108
G1 X138.977 Y215.130 E348.2911
G1 X138.697 Y214.920 E348.3493
G1 X138.186 Y214.441 E348.4658
G1 X137.856 Y214.037 E348.5525
G1 X137.577 Y213.605 E348.6380
G1 X137.311 Y213.058 E348.7392
G1 X136.989 Y212.484 E348.8486
G1 X136.407 Y211.330 E349.0636
G1 X135.800 Y209.807 E349.3362
G1 X135.568 Y209.100 E349.4600
G1 X135.479 Y208.743 E349.5211
G1 X135.424 Y208.407 E349.5778
G1 X135.250 Y207.606 E349.7141
G1 X135.183 Y207.184 E349.7851
G1 X135.051 Y206.611 E349.8829
G1 X134.983 Y206.184 E349.9548
G1 X134.851 Y205.611 E350.0526
G1 X134.783 Y205.184 E350.1245
G1 X134.651 Y204.611 E350.2223
G1 X134.583 Y204.184 E350.2942
G1 X134.451 Y203.611 E350.3920
G1 X134.347 Y203.016 E350.4924
G1 X134.053 Y201.822 E350.6969
G1 X134.020 Y201.658 E350.7248
G1 X134.039 Y201.653 E350.7280
G1 X133.654 Y199.828 E351.0382
G1 X133.583 Y199.384 E351.1130
G1 X133.451 Y198.811 E351.2108
G1 X133.383 Y198.384 E351.2827
G1 X133.251 Y197.811 E351.3805
G1 X133.183 Y197.384 E351.4524
G1 X133.051 Y196.811 E351.5501
G1 X132.947 Y196.216 E351.6506
G1 X132.620 Y194.858 E351.8829
G1 X132.646 Y194.851 E351.8874
G1 X132.451 Y194.007 E352.0314
G1 X132.383 Y193.584 E352.1027
G1 X132.251 Y193.011 E352.2005
G1 X132.183 Y192.584 E352.2724
G1 X132.051 Y192.011 E352.3701
G1 X131.983 Y191.584 E352.4421
G1 X131.851 Y191.010 E352.5400
G1 X131.783 Y190.588 E352.6111
G1 X131.456 Y189.038 E352.8745
G1 X131.380 Y188.453 E352.9726
G1 X131.322 Y187.749 E353.0901
G1 X131.077 Y186.737 E353.2633
G1 X130.957 Y186.053 E353.3787
G1 X130.655 Y184.828 E353.5886
G1 X130.580 Y184.256 E353.6845
G1 X130.424 Y183.454 E353.8204
G1 X130.319 Y182.700 E353.9470
G1 X130.253 Y182.420 E353.9948
G1 X130.183 Y181.984 E354.0683
G1 X130.051 Y181.411 E354.1660
G1 X129.983 Y180.984 E354.2379
G1 X129.851 Y180.411 E354.3357
G1 X129.783 Y179.984 E354.4076
G1 X129.651 Y179.411 E354.5054
G1 X129.583 Y178.985 E354.5772
G1 X129.454 Y178.423 E354.6731
G1 X129.318 Y177.498 E354.8285
G1 X129.253 Y177.220 E354.8760
G1 X129.183 Y176.784 E354.9494
G1 X129.051 Y176.211 E355.0472
G1 X128.983 Y175.784 E355.1191
G1 X128.829 Y175.116 E355.2331
G1 X128.718 Y174.713 E355.3027
